X:03
T: Father o'Flynn's
M: 6/8
O: Ireland
R: Jig
Q: 1/4=120
S: Jim Davis to CoMandoList TOW 2008
Z: Richard Robinson
S:
%%FILEURL:  http://www.leeds.ac.uk/music/Info/RRTuneBk/RRtunes/RRtunes.abc
%%TUNEURL:  http://www.leeds.ac.uk/music/Info/RRTuneBk/gettune/00000892.html
%%ID:00000892
K: D
A|
"D"dAF DFA|"G"ded cBA|"D"dcd "G"efg|"D"fdf "A"ecA|
"D"dAF DFA|"G"ded cBA|"D"dcd "A"efg|"D"fdd d2:|
e|
"D"f2f fga|"A"ecA ABc|"G"dcd Bed|"A"cAA A2A|
"G"BGB Bcd|"D"AFD DFA|"D"dcd "A"efg|"D"fdd d2:|
